lib/radiotmp/nrk-media-speed-1x.svg

<svg width="40" height="24" viewBox="0 0 40 24" fill="none" xmlns="http://www.w3.org/2000/svg">
<path d="M17.8139 17.325H15.6389V9.07505C15.3189 9.26505 14.9889 9.42505 14.6489 9.55505C14.3089 9.68505 13.9089 9.80005 13.4489 9.90005L13.1189 8.16005C13.8089 7.99005 14.4489 7.77505 15.0389 7.51505C15.6289 7.25505 16.2439 6.97505 16.8839 6.67505H17.8139V17.325Z" fill="black"/>
<path d="M19.0212 17.325L21.7062 13.455L19.2312 9.84005L21.3162 9.31505L22.9662 12.24L24.4962 9.57005H26.8662L24.2112 13.365L26.8812 17.325H24.5262L22.9062 14.61L21.3162 17.325H19.0212Z" fill="black"/>
</svg>

<svg xmlns="http://www.w3.org/2000/svg" viewBox="0 0 40 24"><path fill="#000" d="M17.814 17.325h-2.175v-8.25c-.32.19-.65.35-.99.48-.34.13-.74.245-1.2.345l-.33-1.74c.69-.17 1.33-.385 1.92-.645.59-.26 1.205-.54 1.845-.84h.93v10.65ZM19.021 17.325l2.685-3.87-2.475-3.615 2.085-.525 1.65 2.925 1.53-2.67h2.37l-2.655 3.795 2.67 3.96h-2.355l-1.62-2.715-1.59 2.715h-2.295Z"/></svg>
